symbolic/status/view-wrapped-symbolic.svg

<svg xmlns="http://www.w3.org/2000/svg" width="16" height="16"><path d="M10 1c1.662 0 3 1.338 3 3v2h2l-3 4-3-4h2V4c0-.554-.446-1-1-1H6c-.554 0-1 .446-1 1v8c0 .554.446 1 1 1h3v2H6c-1.662 0-3-1.338-3-3V4c0-1.662 1.338-3 3-3z" fill="#f8f8f2"/></svg>

<svg xmlns="http://www.w3.org/2000/svg" width="16" height="16" version="1.1">
 <path style="fill:#dfdfdf" d="M 10,1 C 11.662,1 13,2.338 13,4 V 6 H 15 L 12,10 9,6 H 11 V 4 C 11,3.446 10.554,3 10,3 H 6 C 5.446,3 5,3.446 5,4 V 12 C 5,12.554 5.446,13 6,13 H 9 V 15 H 6 C 4.338,15 3,13.662 3,12 V 4 C 3,2.338 4.338,1 6,1 Z"/>
</svg>
